apps/web/src/assets/svgs/text.svg

<?xml version="1.0" encoding="UTF-8" standalone="no"?>
<!-- Created with Inkscape (http://www.inkscape.org/) -->

<svg
   width="8mm"
   height="8mm"
   viewBox="0 0 8 8"
   version="1.1"
   id="svg1"
   sodipodi:docname="text_flat.svg"
   inkscape:version="1.3.2 (091e20ef0f, 2023-11-25)"
   xmlns:inkscape="http://www.inkscape.org/namespaces/inkscape"
   xmlns:sodipodi="http://sodipodi.sourceforge.net/DTD/sodipodi-0.dtd"
   xmlns="http://www.w3.org/2000/svg"
   xmlns:svg="http://www.w3.org/2000/svg">
  <sodipodi:namedview
     id="namedview1"
     pagecolor="#ffffff"
     bordercolor="#000000"
     borderopacity="0.25"
     inkscape:showpageshadow="2"
     inkscape:pageopacity="0.0"
     inkscape:pagecheckerboard="0"
     inkscape:deskcolor="#d1d1d1"
     inkscape:document-units="mm"
     inkscape:zoom="11.190254"
     inkscape:cx="34.94112"
     inkscape:cy="29.221857"
     inkscape:window-width="2560"
     inkscape:window-height="1515"
     inkscape:window-x="0"
     inkscape:window-y="1415"
     inkscape:window-maximized="1"
     inkscape:current-layer="layer1" />
  <defs
     id="defs1" />
  <g
     inkscape:label="Capa 1"
     inkscape:groupmode="layer"
     id="layer1"
     transform="translate(-183.90694,-69.254066)">
    <path
       style="fill:#f1f0fc;fill-opacity:1;stroke:#c4c1e3;stroke-width:0.355733;stroke-linecap:round;stroke-linejoin:round;stroke-dasharray:none;stroke-opacity:1"
       d="m 172.79577,126.11331 h 9.05802"
       id="path136-2"
       sodipodi:nodetypes="cc" />
    <g
       id="g161-1"
       transform="matrix(0.96762994,0,0,0.96762994,139.54455,2.0769714)">
      <path
         id="path160-9"
         style="color:#000000;fill:#000000;stroke-linecap:round;stroke-linejoin:round;-inkscape-stroke:none"
         d="M 46.83604 69.673768 C 46.43201 69.673768 46.097446 70.009934 46.097446 70.413963 L 46.097446 76.702955 C 46.097446 77.106985 46.43201 77.441548 46.83604 77.441548 L 53.125031 77.441548 C 53.529062 77.441548 53.863091 77.106985 53.863091 76.702955 L 53.863091 70.413963 C 53.863091 70.009934 53.529062 69.673768 53.125031 69.673768 L 46.83604 69.673768 z M 46.83604 70.275644 L 53.125031 70.275644 C 53.207041 70.275644 53.263885 70.331952 53.263885 70.413963 L 53.263885 76.702955 C 53.263885 76.784965 53.207043 76.841808 53.125031 76.841808 L 46.83604 76.841808 C 46.75403 76.841808 46.697186 76.784967 46.697186 76.702955 L 46.697186 70.413963 C 46.697186 70.331953 46.754029 70.275644 46.83604 70.275644 z M 49.998159 71.357632 A 0.250025 0.250025 0 0 0 49.765847 71.513575 L 48.185588 75.414288 A 0.25 0.25 0 0 0 48.324442 75.74006 A 0.25 0.25 0 0 0 48.650213 75.60174 L 49.106827 74.472755 L 50.877742 74.472755 L 51.310324 75.551005 A 0.25 0.25 0 0 0 51.63663 75.689325 A 0.25 0.25 0 0 0 51.775483 75.365156 L 50.228336 71.515712 A 0.250025 0.250025 0 0 0 49.998159 71.357632 z M 49.996023 72.275133 L 50.676939 73.972883 L 49.309233 73.972883 L 49.996023 72.275133 z " />
    </g>
  </g>
</svg>

<svg xmlns="http://www.w3.org/2000/svg" width="8mm" height="8mm" viewBox="0 0 8 8"><path d="M172.796 126.113h9.058" style="fill:#f1f0fc;fill-opacity:1;stroke:#c4c1e3;stroke-width:.355733;stroke-linecap:round;stroke-linejoin:round;stroke-dasharray:none;stroke-opacity:1" transform="translate(-183.907 -69.254)"/><path d="M46.836 69.674a.745.745 0 0 0-.739.74v6.289c0 .404.335.739.739.739h6.289a.743.743 0 0 0 .738-.739v-6.289a.745.745 0 0 0-.738-.74zm0 .602h6.289c.082 0 .139.056.139.138v6.289a.133.133 0 0 1-.139.139h-6.289a.133.133 0 0 1-.139-.139v-6.289c0-.082.057-.138.139-.138m3.162 1.082a.25.25 0 0 0-.232.156l-1.58 3.9a.25.25 0 0 0 .138.326.25.25 0 0 0 .326-.138l.457-1.13h1.77l.433 1.079a.25.25 0 0 0 .327.138.25.25 0 0 0 .138-.324l-1.547-3.85a.25.25 0 0 0-.23-.157m-.002.917.68 1.698H49.31z" style="color:#000;fill:#000;stroke-linecap:round;stroke-linejoin:round;-inkscape-stroke:none" transform="matrix(.96763 0 0 .96763 -44.362 -67.177)"/></svg>
